X:787
T:Perth Assembly
R:Reel
C:Samson Duncan
B:The Athole Collection
M:C|
L:1/8
K:F
c|A2cA B2dB|c2Ac BGGB|A2cA Bcde|fcdB AFF:|
f|a2fa g2eg|~f2df ecce|d2Bd c2Ac|~B2GB AFFf|
aafa ggeg|ffdf ecce|ddBd ccAc|defg af~f||

